logos/tidal.svg

<?xml version="1.0" encoding="UTF-8"?>
<svg width="512px" height="68px" viewBox="0 0 512 68" version="1.1" xmlns="http://www.w3.org/2000/svg" xmlns:xlink="http://www.w3.org/1999/xlink" preserveAspectRatio="xMidYMid">
    <title>Tidal</title>
    <g fill="#000000">
				<path d="M203.294328,8.50437286 L203.294328,19.7679876 L186.297153,19.7679876 L186.297153,66.3844744 L173.155021,66.3844744 L173.155021,19.7679876 L156.157846,19.7679876 L156.157846,8.50437286 L203.294328,8.50437286 Z M255.841755,8.50505349 L255.841755,66.3844744 L242.622033,66.3844744 L242.622033,8.50505349 L255.841755,8.50505349 Z M489.135863,8.50437286 L489.135863,54.9622747 L512,54.9622747 L512,66.3844744 L475.91614,66.3844744 L475.91614,8.50437286 L489.135863,8.50437286 Z M416.84563,8.50437286 L440.689183,66.3844744 L426.158582,66.3844744 L421.929877,54.9636359 L397.525492,54.9636359 L393.259353,66.3844744 L379.12011,66.3844744 L403.197796,8.50437286 L416.84563,8.50437286 Z M321.267233,8.50437286 C337.068555,8.50437286 352.791606,16.8712601 352.791606,37.2871999 C352.791606,56.5304279 337.380961,66.3831131 322.049949,66.3831131 L299.850779,66.3837938 L299.850779,8.50437286 L321.267233,8.50437286 Z M321.188962,19.7679876 L312.678463,19.7679876 L312.678463,55.0405462 L320.876556,55.0405462 C331.905356,55.0405462 339.259478,48.159457 339.259478,37.2082478 C339.259478,26.8049393 331.827765,19.7679876 321.188962,19.7679876 Z M409.786899,22.0439879 L401.068811,44.6814782 L418.424674,44.6814782 L409.786899,22.0439879 Z"></path>
				<path d="M50.8254537,33.8800058 L67.7668178,50.8220506 L50.8254537,67.7647759 L33.8834089,50.8220506 L50.8254537,33.8800058 Z M16.9413641,0.000680622078 L33.8834089,16.9386417 L16.9413641,33.881367 L0,16.9386417 L16.9413641,0.000680622078 Z M84.7075013,0.000680622078 L101.648185,16.9386417 L84.7075013,33.881367 L67.765,16.939 L50.8254537,33.8800058 L33.8834089,16.9372804 L50.8254537,0 L67.7668178,16.9372804 L84.7075013,0.000680622078 Z"></path>
		</g>
</svg>

<svg preserveAspectRatio="xMidYMid" viewBox="0 0 512 68" xmlns="http://www.w3.org/2000/svg">
  <path d="M203.294 8.504v11.264h-16.997v46.616h-13.142V19.768h-16.997V8.504h47.136Zm52.548.001v57.88h-13.22V8.504h13.22Zm233.294 0v46.457H512v11.422h-36.084V8.504h13.22Zm-72.29 0 23.843 57.88h-14.53l-4.23-11.421h-24.404l-4.266 11.42H379.12l24.078-57.88h13.648Zm-95.579 0c15.802 0 31.525 8.366 31.525 28.782 0 19.243-15.411 29.096-30.742 29.096h-22.2V8.505h21.417Zm-.078 11.263h-8.51v35.273h8.198c11.028 0 18.382-6.882 18.382-17.833 0-10.403-7.431-17.44-18.07-17.44Zm88.598 2.276-8.718 22.637h17.356l-8.638-22.637Z"/>
  <path d="m50.825 33.88 16.942 16.942-16.942 16.943-16.942-16.943L50.825 33.88ZM16.941 0l16.942 16.94-16.942 16.94L0 16.94 16.941 0Zm67.767 0 16.94 16.939-16.94 16.942L67.765 16.94l-16.94 16.94-16.942-16.943L50.825 0l16.942 16.937L84.707.001Z"/>
</svg>
